X: 42096
T: Wandering Minstrel, The
R: jig
M: 6/8
K: Dmajor
ADD BAF|Ade {f}edB|ADD BAG|FAF GFE|
ADD BAF|Ade {f}edB|AdB AFE|1 FDC D2B:|2 FDC D2e||
|:faf ede|{f}edB AFA|B/c/dB AGF|GFG [Ee]2e|
faf ede|{f}edB AFA|B/c/dB AFE|FDC D2 e:|
|:f/e/df afd|gbe gbe|f/e/df afd|c/d/eA ceA|
[Ff]e[Ff] [Aa]fd|gbe gbe|faf ede|1 f/e/dc d/c/de:|2 f/e/dc dcB||

